**kern	**silbe
*ICvox	*
*D:	*
*M4/4	*
*clefG2	*
r;	.
r;	.
=1	=1
1r	.
=2	=2
1r	.
=3	=3
1r	.
=4	=4
1r	.
=5	=5
4f#	I
4f#	see
4r	.
4d	a
=6	=6
4e	bad
4d	_
4e	moon
8d	a
[8f#	ri-
=7	=7
8f#]	_
4.d	-sin'.
2r	.
=8	=8
1r	.
=9	=9
4f#	I
4f#	see
2r	.
=10	=10
8e	trou-
4d	-ble
8r	.
4f#	on
8d	the
[8d	way.
=11	=11
4d]	_
2r	.
4r	.
=12	=12
1r	.
=13	=13
4f#	I
4f#	see
2r	.
=14	=14
8e	earth-
4.d	_
4e	-quakes
8d	and
[8f#	light-
=15	=15
8f#]	_
4.d	-nin'.
2r	.
=16	=16
1r	.
=17	=17
4f#	I
4f#	see
2r	.
=18	=18
8e	bad
4d	_
4.f#	times
8d	to-
[8d	-day.
=19	=19
4d]	_
2r	.
4r	.
=20	=20
1r	.
=21	=21
4g	Don't
4g	go
4g	'round
8e	to-
[8d	-night.
=22	=22
8d]	_
8e	_
4r	.
8r	.
8d	Well
4d	it's
=23	=23
4f#	bound
8f#	to
4f#	take
4e	your
[8d	life.
=24	=24
8d]	_
8B	_
2r	.
4r	.
=25	=25
2.e	There's
8e	a
8e	bad
=26	=26
8d	_
4.d	moon
4d	on
8d	the
[8d	rise.
=27	=27
4d]	_
2r	.
4r	.
=28	=28
1r	.
=29	=29
4f#	I
4f#	hear
2r	.
=30	=30
8e	hur-
4d	-ri-
4.e	-canes
8d	a
[8f#	blow
=31	=31
8f#]	_
4.d	in'.
2r	.
=32	=32
1r	.
=33	=33
4f#	I
2f#	know
8d	the
[8e	end
=34	=34
4e]	_
4d	is
8f#	co-
4d	-min'
[8d	soon.
=35	=35
4d]	_
2r	.
4r	.
=36	=36
1r	.
=37	=37
4f#	I
4f#	fear
2r	.
=38	=38
8e	ri-
8d	-vers
4r	.
4e	o-
8d	-ver-
[8f#	-flow-
=39	=39
8f#]	_
4.d	-in'.
2r	.
=40	=40
1r	.
=41	=41
4f#	I
2f#	hear
8d	the
[8e	voice
=42	=42
4e]	_
8d	of
4.f#	range
8d	and
[8d	ru-
=43	=43
8d]	_
4.d	-in.
2r	.
=44	=44
1r	.
=45	=45
4g	Don't
4g	go
4g	'round
8e	to-
[8d	-night.
=46	=46
8d]	_
8e	_
4r	.
8r	.
8d	Well
4d	it's
=47	=47
4f#	bound
8f#	to
4f#	take
4e	your
[8d	life.
=48	=48
8d]	_
8B	_
2r	.
4r	.
=49	=49
2.e	There's
8e	a
8e	bad
=50	=50
8d	_
4d	moon
8r	.
4d	on
8d	the
[8d	rise.
=51	=51
2d]	_
2r	.
=52	=52
4r	.
2d	Al-
4d	-right!.
=53	=53
1r	.
=54	=54
1r	.
=55	=55
1r	.
=56	=56
1r	.
=57	=57
1r	.
=58	=58
1r	.
=59	=59
1r	.
=60	=60
1r	.
=61	=61
1r	.
=62	=62
1r	.
=63	=63
1r	.
=64	=64
1r	.
=65	=65
1r	.
=66	=66
1r	.
=67	=67
1r	.
=68	=68
1r	.
=69	=69
4f#	Hope
2f#	you
4r	.
=70	=70
8e	got
4d	your
8r	.
4e	things
8d	to-
[8f#	-ge-
=71	=71
8f#]	_
4.d	-ther.
2r	.
=72	=72
1r	.
=73	=73
4f#	Hope
4.f#	you
8r	.
4d	are
=74	=74
4e	quite
8d	pre-
4.f#	-pared
8d	to
[8d	die.
=75	=75
4d]	_
2r	.
4r	.
=76	=76
1r	.
=77	=77
4f#	Looks
4f#	like
4r	.
4d	we're
=78	=78
4e	in
8d	for
4.e	na-
8d	-sty
[8f#	wea-
=79	=79
8f#]	_
8d	-ther.
2r	.
4r	.
=80	=80
1r	.
=81	=81
4f#	One
2f#	eye
4d	is
=82	=82
8e	ta-
4d	-ken
8r	.
4f#	for
8d	an
[8d	eye.
=83	=83
8d]	_
2r	.
4r	.
8r	.
=84	=84
4r	.
8r	.
[8f#	Well
2f#]	_
=85	=85
4g	don't
4g	go
4g	'round
8e	to-
[8d	-night.
=86	=86
8d]	_
8e	_
4r	.
8r	.
8d	Well
4d	it's
=87	=87
4f#	bound
8f#	to
4f#	take
4e	your
[8d	life.
=88	=88
8d]	_
8B	_
2r	.
4r	.
=89	=89
2.e	There's
8e	a
8e	bad
=90	=90
8d	_
4.d	moon
4d	on
8d	the
[8d	rise.
=91	=91
4d]	_
2r	.
4r	.
=92	=92
1r	.
=93	=93
4g	Don't
4g	go
4g	'round
8e	to-
[8d	-night.
=94	=94
8d]	_
8e	_
4r	.
8r	.
8d	Well
4d	it's
=95	=95
4f#	bound
8f#	to
4f#	take
4e	your
[8d	life.
=96	=96
8d]	_
8B	_
2r	.
4r	.
=97	=97
2.e	There's
8e	a
8e	bad
=98	=98
8d	_
4.d	moon
4d	on
8d	the
[8d	rise.
=99	=99
4d]	_
2r	.
4r	.
=100	=100
1r	.
r;	.
r;	.
*-	*-
!!!ENC: Nathaniel Condit-Schultz